client/src/assets/icons/phone.svg

<svg width="58" height="58" viewBox="0 0 58 58" fill="none" xmlns="http://www.w3.org/2000/svg">
<g clip-path="url(#clip0_126_2465)">
<path d="M17.8461 0C16.0712 0 14.369 0.70508 13.114 1.96013C11.8589 3.21518 11.1538 4.9174 11.1538 6.69231V51.3077C11.1538 53.0826 11.8589 54.7848 13.114 56.0399C14.369 57.2949 16.0712 58 17.8461 58H42.3846C44.1595 58 45.8617 57.2949 47.1168 56.0399C48.3718 54.7848 49.0769 53.0826 49.0769 51.3077V6.69231C49.0769 4.9174 48.3718 3.21518 47.1168 1.96013C45.8617 0.70508 44.1595 0 42.3846 0L17.8461 0ZM27.8846 2.23077H32.3461C32.642 2.23077 32.9257 2.34828 33.1348 2.55746C33.344 2.76663 33.4615 3.05034 33.4615 3.34615C33.4615 3.64197 33.344 3.92567 33.1348 4.13485C32.9257 4.34403 32.642 4.46154 32.3461 4.46154H27.8846C27.5888 4.46154 27.3051 4.34403 27.0959 4.13485C26.8867 3.92567 26.7692 3.64197 26.7692 3.34615C26.7692 3.05034 26.8867 2.76663 27.0959 2.55746C27.3051 2.34828 27.5888 2.23077 27.8846 2.23077ZM16.7308 6.69231H43.5C43.7958 6.69231 44.0795 6.80982 44.2887 7.019C44.4979 7.22817 44.6154 7.51187 44.6154 7.80769V45.7308C44.6154 46.0266 44.4979 46.3103 44.2887 46.5195C44.0795 46.7286 43.7958 46.8462 43.5 46.8462H16.7308C16.4349 46.8462 16.1512 46.7286 15.9421 46.5195C15.7329 46.3103 15.6154 46.0266 15.6154 45.7308V7.80769C15.6154 7.51187 15.7329 7.22817 15.9421 7.019C16.1512 6.80982 16.4349 6.69231 16.7308 6.69231ZM33.3232 17.8462C32.4019 17.9064 31.3713 18.4752 30.7422 19.2404C30.1711 19.9319 29.6514 20.9558 29.8365 21.9597C30.8426 21.9865 31.8844 21.4109 32.4867 20.6346C33.0488 19.9118 33.4794 18.8902 33.3232 17.8462ZM27.1172 21.8192C25.8011 21.8192 24.3801 22.6802 23.4922 24.0499C22.2385 25.9728 22.4438 29.5354 24.4693 32.625C25.1965 33.727 26.2004 34.9829 27.4675 34.9963C28.5895 35.0075 28.8661 34.307 30.3942 34.2981C31.9223 34.2892 32.1945 35.0075 33.3232 34.9963C34.5858 34.9829 35.6655 33.6578 36.3883 32.5558C36.8257 31.8954 37.1992 31.1947 37.5037 30.4634C34.5702 29.3547 34.046 25.1497 36.946 23.5614C36.0626 22.4594 34.8424 21.8214 33.6712 21.8214C32.1208 21.8214 31.4717 22.5865 30.3942 22.5865C29.2833 22.5865 28.4601 21.8192 27.1172 21.8192ZM30.1154 49.5677C31.6903 49.5677 32.973 50.8504 32.973 52.4253C32.973 54.0002 31.6903 55.2829 30.1154 55.2829C29.3579 55.2817 28.6317 54.9803 28.096 54.4446C27.5604 53.909 27.2589 53.1828 27.2578 52.4253C27.2578 50.8504 28.5405 49.5677 30.1154 49.5677Z" fill="#011034"/>
</g>
<defs>
<clipPath id="clip0_126_2465">
<rect width="58" height="58" fill="white"/>
</clipPath>
</defs>
</svg>

<svg xmlns="http://www.w3.org/2000/svg" width="58" height="58" fill="none" viewBox="0 0 58 58">
  <g clip-path="url(#a)">
    <path fill="#011034" d="M17.846 0a6.692 6.692 0 0 0-6.692 6.692v44.616A6.693 6.693 0 0 0 17.846 58h24.539a6.692 6.692 0 0 0 6.692-6.692V6.692A6.692 6.692 0 0 0 42.385 0H17.846Zm10.039 2.23h4.461a1.115 1.115 0 0 1 0 2.232h-4.461a1.115 1.115 0 0 1 0-2.231ZM16.73 6.693H43.5a1.115 1.115 0 0 1 1.115 1.116V45.73a1.115 1.115 0 0 1-1.115 1.115H16.73a1.116 1.116 0 0 1-1.115-1.115V7.808a1.115 1.115 0 0 1 1.116-1.116Zm16.592 11.154c-.921.06-1.952.63-2.58 1.394-.572.692-1.092 1.716-.906 2.72 1.006.026 2.047-.55 2.65-1.325.562-.723.992-1.745.836-2.789Zm-6.206 3.973c-1.316 0-2.737.861-3.625 2.23-1.253 1.924-1.048 5.486.977 8.576.728 1.102 1.731 2.358 2.998 2.371 1.123.011 1.4-.689 2.927-.698 1.528-.009 1.8.71 2.93.698 1.262-.013 2.342-1.338 3.064-2.44.438-.66.811-1.361 1.116-2.093-2.934-1.108-3.458-5.313-.558-6.902-.883-1.102-2.104-1.74-3.275-1.74-1.55 0-2.2.765-3.277.765-1.11 0-1.934-.767-3.277-.767Zm2.998 27.749a2.862 2.862 0 0 1 2.858 2.857 2.862 2.862 0 0 1-2.858 2.858 2.862 2.862 0 0 1-2.857-2.858 2.862 2.862 0 0 1 2.857-2.857Z"/>
  </g>
  <defs>
    <clipPath id="a">
      <path fill="#fff" d="M0 0h58v58H0z"/>
    </clipPath>
  </defs>
</svg>
